src/components/Icon/icons/filled-analytics.svg

<svg xmlns="http://www.w3.org/2000/svg" width="100%" height="100%" viewBox="0 0 20 20" fill="none">
  <path fill-rule="evenodd" clip-rule="evenodd" d="M1.16699 3.99984C1.16699 2.43503 2.43552 1.1665 4.00033 1.1665H16.0003C17.5651 1.1665 18.8337 2.43503 18.8337 3.99984V15.9998C18.8337 17.5646 17.5651 18.8332 16.0003 18.8332H4.00032C2.43552 18.8332 1.16699 17.5646 1.16699 15.9998V3.99984ZM14.8337 5.99984C14.8337 5.5396 14.4606 5.1665 14.0003 5.1665C13.5401 5.1665 13.167 5.5396 13.167 5.99984V13.9998C13.167 14.4601 13.5401 14.8332 14.0003 14.8332C14.4606 14.8332 14.8337 14.4601 14.8337 13.9998V5.99984ZM10.8337 9.99984C10.8337 9.5396 10.4606 9.1665 10.0003 9.1665C9.54009 9.1665 9.16699 9.5396 9.16699 9.99984V13.9998C9.16699 14.4601 9.54009 14.8332 10.0003 14.8332C10.4606 14.8332 10.8337 14.4601 10.8337 13.9998V9.99984ZM6.83366 11.9998C6.83366 11.5396 6.46056 11.1665 6.00033 11.1665C5.54009 11.1665 5.16699 11.5396 5.16699 11.9998V13.9998C5.16699 14.4601 5.54009 14.8332 6.00033 14.8332C6.46056 14.8332 6.83366 14.4601 6.83366 13.9998V11.9998Z" fill="currentColor"/>
</svg>

<svg xmlns="http://www.w3.org/2000/svg" fill="none" viewBox="0 0 20 20"><path fill="currentColor" fill-rule="evenodd" d="M1.167 4A2.833 2.833 0 0 1 4 1.167h12A2.833 2.833 0 0 1 18.834 4v12A2.833 2.833 0 0 1 16 18.833H4A2.833 2.833 0 0 1 1.167 16zm13.667 2a.833.833 0 0 0-1.667 0v8a.833.833 0 1 0 1.667 0zm-4 4a.833.833 0 0 0-1.667 0v4a.833.833 0 1 0 1.667 0zm-4 2a.833.833 0 0 0-1.667 0v2a.833.833 0 1 0 1.667 0z" clip-rule="evenodd"/></svg>
